symbols/web/22mp/materialsymbolsrounded/22mp_wght100_40px.svg

<svg xmlns="http://www.w3.org/2000/svg" height="40" width="40"><path d="M12.583 18.417H17q.208 0 .354-.167t.146-.375q0-.25-.146-.396-.146-.146-.396-.146H12.5v-2.708h3.833q.459 0 .813-.333.354-.334.354-.834v-2.541q0-.459-.354-.813-.354-.354-.813-.354h-4.416q-.209 0-.355.146-.145.146-.145.396t.166.396q.167.145.375.145h4.459v2.709h-3.834q-.458 0-.812.333-.354.333-.354.833v2.542q0 .458.354.812.354.355.812.355Zm11.042 0H28q.208 0 .375-.167t.167-.375q0-.25-.167-.396-.167-.146-.417-.146h-4.416v-2.708h3.833q.458 0 .813-.333.354-.334.354-.834v-2.541q0-.459-.354-.813-.355-.354-.813-.354h-4.458q-.167 0-.313.146t-.146.396q0 .25.146.396.146.145.354.145h4.5v2.709h-3.833q-.5 0-.833.333-.334.333-.334.833v2.542q0 .458.354.812.355.355.813.355ZM9.5 32.833q-1 0-1.667-.666-.666-.667-.666-1.667v-21q0-1 .666-1.667.667-.666 1.667-.666h21q1 0 1.667.666.666.667.666 1.667v21q0 1-.666 1.667-.667.666-1.667.666Zm0-1h21q.583 0 .958-.375t.375-.958v-21q0-.583-.375-.958t-.958-.375h-21q-.583 0-.958.375t-.375.958v21q0 .583.375.958t.958.375Zm1.667-1.583q.208 0 .375-.167.166-.166.166-.375v-7.041h3.084v4.583q0 .167.166.312.167.146.375.146.25 0 .396-.146.146-.145.146-.354v-4.541h3.167v7.083q0 .208.166.354.167.146.375.146.25 0 .396-.167.146-.166.146-.375v-7.125q0-.416-.271-.708t-.729-.292h-7.5q-.458 0-.729.292-.271.292-.271.708v7.167q0 .208.146.354t.396.146Zm12.666 0q.25 0 .396-.167.146-.166.146-.375v-2h4q.458 0 .729-.27.271-.271.271-.73v-4.125q0-.416-.271-.708t-.729-.292h-4.083q-.417 0-.709.292-.291.292-.291.708v7.167q0 .208.166.354.167.146.375.146Zm.542-7.583h3.917v3.958h-3.917ZM8.167 9.5V8.167 31.833 30.5Z"/></svg>

<svg xmlns="http://www.w3.org/2000/svg" height="40" width="40"><path d="M12.583 18.417H17Q17.208 18.417 17.354 18.25Q17.5 18.083 17.5 17.875Q17.5 17.625 17.354 17.479Q17.208 17.333 16.958 17.333H12.5V14.625H16.333Q16.792 14.625 17.146 14.292Q17.5 13.958 17.5 13.458V10.917Q17.5 10.458 17.146 10.104Q16.792 9.75 16.333 9.75H11.917Q11.708 9.75 11.562 9.896Q11.417 10.042 11.417 10.292Q11.417 10.542 11.583 10.688Q11.75 10.833 11.958 10.833H16.417V13.542H12.583Q12.125 13.542 11.771 13.875Q11.417 14.208 11.417 14.708V17.25Q11.417 17.708 11.771 18.062Q12.125 18.417 12.583 18.417ZM23.625 18.417H28Q28.208 18.417 28.375 18.25Q28.542 18.083 28.542 17.875Q28.542 17.625 28.375 17.479Q28.208 17.333 27.958 17.333H23.542V14.625H27.375Q27.833 14.625 28.188 14.292Q28.542 13.958 28.542 13.458V10.917Q28.542 10.458 28.188 10.104Q27.833 9.75 27.375 9.75H22.917Q22.75 9.75 22.604 9.896Q22.458 10.042 22.458 10.292Q22.458 10.542 22.604 10.688Q22.75 10.833 22.958 10.833H27.458V13.542H23.625Q23.125 13.542 22.792 13.875Q22.458 14.208 22.458 14.708V17.25Q22.458 17.708 22.812 18.062Q23.167 18.417 23.625 18.417ZM9.5 32.833Q8.5 32.833 7.833 32.167Q7.167 31.5 7.167 30.5V9.5Q7.167 8.5 7.833 7.833Q8.5 7.167 9.5 7.167H30.5Q31.5 7.167 32.167 7.833Q32.833 8.5 32.833 9.5V30.5Q32.833 31.5 32.167 32.167Q31.5 32.833 30.5 32.833ZM9.5 31.833H30.5Q31.083 31.833 31.458 31.458Q31.833 31.083 31.833 30.5V9.5Q31.833 8.917 31.458 8.542Q31.083 8.167 30.5 8.167H9.5Q8.917 8.167 8.542 8.542Q8.167 8.917 8.167 9.5V30.5Q8.167 31.083 8.542 31.458Q8.917 31.833 9.5 31.833ZM11.167 30.25Q11.375 30.25 11.542 30.083Q11.708 29.917 11.708 29.708V22.667H14.792V27.25Q14.792 27.417 14.958 27.562Q15.125 27.708 15.333 27.708Q15.583 27.708 15.729 27.562Q15.875 27.417 15.875 27.208V22.667H19.042V29.75Q19.042 29.958 19.208 30.104Q19.375 30.25 19.583 30.25Q19.833 30.25 19.979 30.083Q20.125 29.917 20.125 29.708V22.583Q20.125 22.167 19.854 21.875Q19.583 21.583 19.125 21.583H11.625Q11.167 21.583 10.896 21.875Q10.625 22.167 10.625 22.583V29.75Q10.625 29.958 10.771 30.104Q10.917 30.25 11.167 30.25ZM23.833 30.25Q24.083 30.25 24.229 30.083Q24.375 29.917 24.375 29.708V27.708H28.375Q28.833 27.708 29.104 27.438Q29.375 27.167 29.375 26.708V22.583Q29.375 22.167 29.104 21.875Q28.833 21.583 28.375 21.583H24.292Q23.875 21.583 23.583 21.875Q23.292 22.167 23.292 22.583V29.75Q23.292 29.958 23.458 30.104Q23.625 30.25 23.833 30.25ZM24.375 22.667H28.292V26.625H24.375ZM8.167 9.5Q8.167 8.917 8.167 8.542Q8.167 8.167 8.167 8.167Q8.167 8.167 8.167 8.542Q8.167 8.917 8.167 9.5V30.5Q8.167 31.083 8.167 31.458Q8.167 31.833 8.167 31.833Q8.167 31.833 8.167 31.458Q8.167 31.083 8.167 30.5Z"/></svg>
